X:1
T:Ach  Gott von Himmel
T:Benedictus Ducis
T:Source : DDT 34---Leipzig---Breitkopf & Härtel---J.Wolf---1908. First publication : Neue Deudsche Geistliche Gesenge---Wittemberg---G.Rhau---1544. Editor : André Vierendeels (18/07/17)  
T:Notes : Original Clefs : C1, C3, C4, F4 Original note values have been halved Editorial accidentals above the staff 
T:Ach  Gott von Himmel
T:©
T:©
T:©
C:Benedictus Ducis
Z:©
%%score [ 1 [ 2 3 ] 4 ]
L:1/8
Q:1/4=120
M:2/2
K:C
V:1 treble nm="Soprano" snm="S"
V:2 treble-8 nm="Tenor 1" snm="T 1"
V:3 treble-8 nm="Tenor 2" snm="T 2"
V:4 bass nm="Bass" snm="B"
V:1
 z4 G4 | c6 B2 | A4 G2 A2 | B8 | G4 z2 A2 | G4 E4- | E2 DC D4- | D2 E2 F4 | E4 D2 A2- | %9
w: Ach|Gotte von|Him- mel sieh|dar-|ein und|lasz dich|_ _ _ _|* * des|er- bar- *|
 AG F2 E2 A2- |"^#" AG G4 F2 |1[M:2/4] G4- :|2[M:2/2] G4 z2 G2 || B4 c4 | c6 B2 | A4 G4 | %16
w: ||men.|men. Dein|Wort man|läszt nicht|ha- ben|
 F2 F4 F2 | E2 E3 F G2 | A2 F4 E2 | F2 A2 A2 A2 | G2 E2 F2 G2 | C2 E2 E2 E2 | D2 C2 F3 E | %23
w: wahr, dein Wort|man läszt _ _|nicht ha- ben|wahr, der Glaub ist|auch ver- lo- schen|gar, der Glaub ist|auch ver- lo- *|
 D2 C2 D4 | C2 F2 D2 E2- | EF G2 E2 F2 | G2 A4 G2 |"^#" F2 G3 E F2 | G8 |] %29
w: * schen gar,|bei al- len Men-|* * schen- kin- *|||dern.|
V:2
 G3 A B2 c2- | cd e2 f2 g2- | g2 f2 g2 f2 | e2 d3 B d2 | e3 d/c/ B2 A2 | d4 c4- | c2 BA G3 A | %7
w: Ach _ _ Gott|_ _ _ von Him-||mel sieh _ dar|ein, _ _ _ [ach|Gott von|_ Him- * * mel|
 B2 c3 A B2 | c4 z4 | z2 A2 c3 d | e2 e2 d2 d2 |1[M:2/4] B4 :|2[M:2/2] B3 c d2 e2 || c2 d2 G2 g2 | %14
w: sieh dar _ _|ein,]|und lasz dich|des er- bar- *|men.|men. _ _ Dein|Wort _ _ man|
 f2 e3 c d2- | dc A2 B2 c2 | d8 | z2 G2 A2 G2 | c8- | c8 | c4 d2 B2 | A2 c2 c2 c2 | A4 F2 DE | %23
w: _ läszt _ nicht|_ _ _ ha- ben|wahr,|der Glaub ist|auch|_|ver- lo- schen|gar, der Glaub ist|auch ver- lo- *|
 FG A3 F G2 | A4 B2 c2- | c2 B2 c2 d2 | e2 f3 e d2- | d2 c2 d4 | d8 |] %29
w: * * * * schen|gar, bei al-|* len Men- schen-|kin- * * *||dern.|
V:3
 z8 | z8 | z8 | z8 | z2 G4 c2- | c2 B2 A2 G2 | A4 B4 | G4 z4 | G4 B2 c2 | d4 G2 A2 | B2 c2 A4 |1 %11
w: ||||Ach Gott|_ von Him- mel|sieh dar-|ein|und lasz dich|des er- bar-||
[M:2/4] G4 :|2[M:2/2] G8 || z8 | z8 | z4 G4 | A6 B2 | c6 B2 | A4 G4 | F8 | z4 z2 E2 | F2 G2 A3 G | %22
w: men.|men.|||Dein|Wort man|läszt nicht|ha- ben|wahr,|der|Glaub ist auch ver-|
 F2 E2 D4 | z4 D4 | E2 F2 G4- | G4 A4 | c3 d c2 B2 | A2 G2 A4 | G8 |] %29
w: lo- schen gar,|bei|al- len Men-|* schen-|kin- * * *||dern.|
V:4
 z8 | z8 | z2 D,2 E,2 D,2 | G,8 | C,3 D, E,2 F,2 | G,4 C,4 | z8 | z2 C,2 D,4 | C,4 G,2 F,2- | %9
w: ||Ach Gott von|Him-|mel _ _ sieh|dar- ein||und lasz|dich des er-|
 F,E, D,2 C,2 F,2 | E,2 C,2 D,4 |1[M:2/4] E,4 :|2[M:2/2] E,4 z2 C,2 || F,4 E,4 | A,6 G,2 | %15
w: * * * * bar-||men.|men. Dein|Wort man|läszt nicht|
 F,4 E,4 | D,2 D,2 D,2 D,2 | A,,2 C,3 D, E,2 | F,4 C,4 | F,,8 | z8 | z2 C,2 C,2 C,2 | %22
w: ha- ben|war, dein Wort man|läszt nicht _ _|ha- ben|wahr,||der Glaub ist|
 D,2 A,,2 _B,,4- | B,,2 A,,2 _B,,4 | A,,2 D,2 G,,2 C,2- | C,D, E,4 D,2 | C,2 F,4 G,2 | %27
w: auch ver- lo-|* schen gar|bei al- len Mzn-|* * * schen-|kin- * *|
"^b" D,2 E,2 D,4 | G,,8 |] %29
w: |dern.|

